svg/fluentui-system-icons/ic_fluent_guitar_28_regular.svg

<svg width="28" height="28" viewBox="0 0 28 28" fill="none" xmlns="http://www.w3.org/2000/svg">
<path d="M13.5607 16.5605C12.9749 17.1463 12.0251 17.1463 11.4393 16.5605C10.8536 15.9747 10.8536 15.025 11.4393 14.4392C12.0251 13.8534 12.9749 13.8534 13.5607 14.4392C14.1464 15.025 14.1464 15.9747 13.5607 16.5605ZM21.9111 2.42663C22.5945 1.74321 23.7025 1.74321 24.386 2.42663L25.5732 3.6139C26.2566 4.29731 26.2566 5.40535 25.5732 6.08877L19.0564 12.6056C20.2204 14.1686 19.7238 16.4702 17.9132 17.3755L16.8919 17.8862C16.5225 18.0708 16.3225 18.4799 16.4035 18.8848L16.4212 18.9735C16.8444 21.0896 16.0149 23.2607 14.2886 24.5555C11.4135 26.7118 7.3904 26.4258 4.84918 23.8846L4.11522 23.1507C1.57401 20.6095 1.2881 16.5864 3.44439 13.7113C4.73918 11.9849 6.91024 11.1554 9.02631 11.5787L9.11503 11.5964C9.51997 11.6774 9.92902 11.4773 10.1137 11.108L10.6243 10.0867C11.5296 8.27605 13.8312 7.77948 15.3943 8.94344L21.9111 2.42663ZM23.3253 3.48729C23.2277 3.38965 23.0694 3.38965 22.9717 3.48729L21.7333 4.72569L23.2974 6.2433L24.5126 5.02811C24.6102 4.93048 24.6102 4.77219 24.5126 4.67456L23.3253 3.48729ZM22.2366 7.30408L20.6726 5.78647L15.9488 10.5102C15.6559 10.8031 15.1811 10.8031 14.8882 10.5102L14.6929 10.3149C13.8711 9.49317 12.4857 9.718 11.966 10.7575L11.4553 11.7788C10.9682 12.7532 9.88909 13.2809 8.82086 13.0673L8.73213 13.0495C7.1825 12.7396 5.59259 13.3471 4.64439 14.6113C2.93598 16.8892 3.16251 20.0766 5.17588 22.09L5.90984 22.824C7.92322 24.8373 11.1107 25.0639 13.3885 23.3555C14.6528 22.4073 15.2603 20.8174 14.9503 19.2677L14.9326 19.179C14.7189 18.1108 15.2467 17.0317 16.2211 16.5445L17.2424 16.0339C18.2819 15.5141 18.5067 14.1287 17.6849 13.3069L17.4897 13.1117C17.1968 12.8188 17.1968 12.3439 17.4897 12.051L22.2366 7.30408Z" fill="#212121"/>
</svg>

<svg xmlns="http://www.w3.org/2000/svg" width="28" height="28"><path d="M13.56 16.56a1.5 1.5 0 1 1-2.12-2.12 1.5 1.5 0 0 1 2.12 2.12Zm8.351-14.133a1.75 1.75 0 0 1 2.475 0l1.187 1.187a1.75 1.75 0 0 1 0 2.475l-6.517 6.517c1.164 1.563.668 3.864-1.143 4.77l-1.021.51a.916.916 0 0 0-.488.999l.017.088a5.604 5.604 0 0 1-2.132 5.582 7.222 7.222 0 0 1-9.44-.67l-.734-.734a7.222 7.222 0 0 1-.67-9.44 5.603 5.603 0 0 1 5.581-2.132l.089.017a.916.916 0 0 0 .999-.488l.51-1.021c.906-1.811 3.207-2.308 4.77-1.144l6.517-6.516Zm1.414 1.06a.25.25 0 0 0-.353 0l-1.239 1.239 1.564 1.517 1.216-1.215a.25.25 0 0 0 0-.353l-1.188-1.188Zm-1.088 3.817-1.564-1.518-4.724 4.724a.75.75 0 0 1-1.06 0l-.196-.195a1.703 1.703 0 0 0-2.727.443l-.51 1.02a2.416 2.416 0 0 1-2.635 1.29l-.089-.018a4.104 4.104 0 0 0-4.088 1.561 5.722 5.722 0 0 0 .532 7.479l.734.734a5.722 5.722 0 0 0 7.479.531 4.104 4.104 0 0 0 1.561-4.087l-.017-.089a2.416 2.416 0 0 1 1.288-2.634l1.021-.511a1.703 1.703 0 0 0 .443-2.727l-.195-.195a.75.75 0 0 1 0-1.061l4.747-4.747Z"/></svg>
